X:659
T:Negro Melody
B:Kerr's Merry Melodies Book 1 (c1875)
Z:Nigel Gatherer
L:1/16
M:2/4
K:Bm
F2 | Bcde f2b2 | Bcde f2b2 | abag fgfe | dedc B2F2 |
     Bcde f2b2 | Bcde f2b2 | abag fgfe | d2c2 B2  ||
A2 | d3A  F2A2 | G2B2 A2c2 | d3A  F2A2 | Bdce d2A2 |
     d3A  F2A2 | G2B2 A2c2 | d3A  F2A2 | B2c2 d2  ||
A2 | d3e  f2a2 | g2f2 e2d2 | f3e  d2A2 | Bdce d2A2 |
     d3e  f2a2 | g2f2 e2d2 | f3e  d2A2 | B2c2 d2  |]
<end>
<start>
